X:174
L:1/8
Q:1/8=120
M:6/8
K:Dmin
"^lively but not too fast" F/G/ | A>DD Dc>E | EDD D2 d/e/ | f>ed edc | A=Bc d2 d/d/ | e>dc dcA | 
 GFE F2 G/G/ | A>DD DcE | EDD D2 || (3A/=B/c/ | d>ed d>cA | GFE F2 G/G/ | GEC CEF | 
 G>AG E2 (3A/=B/c/ | d2 e fed | edc d2 A/=B/ | c=BA GFG | AFD D3 |]

